src/assets/outline/DirectDown.svg

<svg width="24" height="24" viewBox="0 0 24 24"  xmlns="http://www.w3.org/2000/svg">
<path d="M11.9998 21.7498C10.5298 21.7498 9.18985 20.9398 8.50985 19.6398L2.40985 8.04981C1.58985 6.49981 1.85985 4.69981 3.07985 3.44981C4.29985 2.19981 6.09985 1.89981 7.65985 2.67981L10.8998 4.29981C11.5798 4.63981 12.3998 4.63981 13.0898 4.29981L16.3298 2.67981C17.8998 1.89981 19.6998 2.19981 20.9198 3.44981C22.1398 4.69981 22.4098 6.49981 21.5898 8.04981L15.4898 19.6398C14.8098 20.9398 13.4698 21.7498 11.9998 21.7498ZM5.87985 3.74981C5.16985 3.74981 4.54985 4.08981 4.14985 4.49981C3.54985 5.11981 3.11985 6.18981 3.72985 7.34981L9.82985 18.9398C10.2598 19.7598 11.0698 20.2498 11.9898 20.2498C12.9098 20.2498 13.7198 19.7598 14.1498 18.9398L20.2498 7.34981C20.8598 6.18981 20.4398 5.10981 19.8298 4.49981C19.2298 3.88981 18.1698 3.43981 16.9898 4.01981L13.7498 5.63981C12.6398 6.18981 11.3298 6.18981 10.2198 5.63981L6.98985 4.01981C6.60985 3.82981 6.22985 3.74981 5.87985 3.74981Z" />
</svg>

<?xml version="1.0" encoding="UTF-8"?>
<svg width="24" height="24" viewBox="0 0 24 24" xmlns="http://www.w3.org/2000/svg">
 <path d="m12 21.75c-1.47 0-2.81-0.81-3.49-2.11l-6.1-11.59c-0.82-1.55-0.55-3.35 0.67-4.6s3.02-1.55 4.58-0.77l3.24 1.62c0.68 0.34 1.5 0.34 2.19 0l3.24-1.62c1.57-0.78 3.37-0.48 4.59 0.77s1.49 3.05 0.67 4.6l-6.1 11.59c-0.68 1.3-2.02 2.11-3.49 2.11zm-6.12-18c-0.71 0-1.33 0.34-1.73 0.75-0.6 0.62-1.03 1.69-0.42 2.85l6.1 11.59c0.42995 0.82 1.24 1.31 2.16 1.31s1.73-0.49 2.16-1.31l6.1-11.59c0.61-1.16 0.19-2.24-0.42-2.85-0.6-0.61-1.66-1.06-2.84-0.48l-3.24 1.62c-1.11 0.55-2.42 0.55-3.53 0l-3.23-1.62c-0.38-0.19-0.76-0.27-1.11-0.27z"/>
</svg>
